library/images/5e7e6b89b39e21595385dcb3_quote.svg

<svg height="129" viewBox="0 0 134 129" width="134" xmlns="http://www.w3.org/2000/svg"><path d="m31.0723047 59.5142208v10.8893299h26.9276953v58.5964493h-58v-58.5964493h.00140186v-10.8893299c0-22.1122017 6.2971709-38.5315295 18.71768164-48.8047628 8.5920214-7.10635528 19.4676786-10.709458 32.3255707-10.709458v31.3897663c-6.9798784 0-19.9723495 0-19.9723495 28.1244545zm95.9727983-28.1244545v-31.3897663c-12.857657 0-23.733709 3.60310272-32.3260418 10.709458-12.420961 10.2732333-18.7190612 26.6932692-18.7190612 48.8047628v10.8893299 58.5964493h58v-58.5964493h-26.928672v-10.8893299c.000701-28.1244545 12.993643-28.1244545 19.973775-28.1244545z" fill="#458bc9" opacity=".071498"/></svg>

<?xml version="1.0" encoding="UTF-8"?>
<svg width="134px" height="129px" viewBox="0 0 134 129" version="1.1" xmlns="http://www.w3.org/2000/svg" xmlns:xlink="http://www.w3.org/1999/xlink">
    <!-- Generator: Sketch 57.1 (83088) - https://sketch.com -->
    <title>quote</title>
    <desc>Created with Sketch.</desc>
    <g id="Page-1" stroke="none" stroke-width="1" fill="none" fill-rule="evenodd" opacity="0.0714983259">
        <g id="Desktop-HD-Copy-3" transform="translate(-228.000000, -3924.000000)" fill="#458BC9" fill-rule="nonzero">
            <g id="quote" transform="translate(228.000000, 3924.000000)">
                <path d="M31.0723047,59.5142208 L31.0723047,70.4035507 L58,70.4035507 L58,129 L0,129 L0,70.4035507 L0.00140186351,70.4035507 L0.00140186351,59.5142208 C0.00140186351,37.4020191 6.29857276,20.9826913 18.7190835,10.709458 C27.3111049,3.60310272 38.1867621,0 51.0446542,0 L51.0446542,31.3897663 C44.0647758,31.3897663 31.0723047,31.3897663 31.0723047,59.5142208 Z M127.045103,31.3897663 L127.045103,0 C114.187446,0 103.311394,3.60310272 94.7190612,10.709458 C82.2981002,20.9826913 76,37.4027272 76,59.5142208 L76,70.4035507 L76,70.4035507 L76,129 L134,129 L134,70.4035507 L107.071328,70.4035507 L107.071328,59.5142208 C107.072029,31.3897663 120.064971,31.3897663 127.045103,31.3897663 Z" id="Shape"></path>
            </g>
        </g>
    </g>
</svg>
